instagram.svg

<?xml version="1.0" encoding="UTF-8" standalone="no" ?>
<!DOCTYPE svg PUBLIC "-//W3C//DTD SVG 1.1//EN" "http://www.w3.org/Graphics/SVG/1.1/DTD/svg11.dtd">
<svg xmlns="http://www.w3.org/2000/svg" xmlns:xlink="http://www.w3.org/1999/xlink" version="1.1" width="1080" height="1080" viewBox="0 0 1080 1080" xml:space="preserve">
<desc>Created with Fabric.js 5.2.4</desc>
<defs>
</defs>
<rect x="0" y="0" width="100%" height="100%" fill="transparent"></rect>
<g transform="matrix(1 0 0 1 540 540)" id="21f44a6d-ce4a-43e6-a6bf-91b13061d882"  >
<rect style="stroke: none; stroke-width: 1; stroke-dasharray: none; stroke-linecap: butt; stroke-dashoffset: 0; stroke-linejoin: miter; stroke-miterlimit: 4; fill: rgb(255,255,255); fill-rule: nonzero; opacity: 1; visibility: hidden;" vector-effect="non-scaling-stroke"  x="-540" y="-540" rx="0" ry="0" width="1080" height="1080" />
</g>
<g transform="matrix(1 0 0 1 540 540)" id="ea4279ff-6130-4c97-82e5-9811a132bb70"  >
</g>
<g transform="matrix(1.78 0 0 1.78 540 540)"  >
<g style="" vector-effect="non-scaling-stroke"   >
		<g transform="matrix(0.79 0 0 0.79 0 0)"  >
<path style="stroke: none; stroke-width: 1; stroke-dasharray: none; stroke-linecap: butt; stroke-dashoffset: 0; stroke-linejoin: miter; stroke-miterlimit: 4; fill: rgb(102,252,241); fill-rule: nonzero; opacity: 1;" vector-effect="non-scaling-stroke"  transform=" translate(-335.89, -335.89)" d="M 335.895 0 C 244.671 0 233.23199999999997 0.387 197.40499999999997 2.021 C 161.65299999999996 3.652 137.236 9.331 115.86999999999998 17.633 C 93.78199999999998 26.217 75.04999999999998 37.703 56.376999999999974 56.376000000000005 C 37.702999999999975 75.049 26.216999999999974 93.783 17.633999999999972 115.87100000000001 C 9.33 137.236 3.653 161.653 2.02 197.405 C 0.386 233.232 0 244.671 0 335.895 C 0 427.11699999999996 0.386 438.556 2.02 474.383 C 3.653 510.135 9.33 534.552 17.634 555.917 C 26.218 578.005 37.704 596.7370000000001 56.377 615.412 C 75.051 634.085 93.78200000000001 645.571 115.87 654.1550000000001 C 137.236 662.4570000000001 161.65300000000002 668.1350000000001 197.405 669.767 C 233.232 671.4010000000001 244.671 671.788 335.895 671.788 C 427.11699999999996 671.788 438.556 671.4010000000001 474.383 669.767 C 510.135 668.1360000000001 534.552 662.4570000000001 555.917 654.1550000000001 C 578.005 645.5710000000001 596.7370000000001 634.085 615.412 615.412 C 634.085 596.7370000000001 645.571 578.005 654.1550000000001 555.917 C 662.4570000000001 534.552 668.1360000000001 510.13500000000005 669.767 474.38300000000004 C 671.4010000000001 438.55600000000004 671.788 427.117 671.788 335.89500000000004 C 671.788 244.67100000000005 671.4010000000001 233.23200000000003 669.767 197.40500000000003 C 668.1360000000001 161.65300000000002 662.4570000000001 137.23600000000005 654.1550000000001 115.87100000000002 C 645.5710000000001 93.78300000000002 634.085 75.04900000000002 615.412 56.376000000000026 C 596.7370000000001 37.70300000000003 578.005 26.217000000000027 555.917 17.633000000000024 C 534.552 9.331000000000024 510.13500000000005 3.652000000000024 474.38300000000004 2.021000000000024 C 438.556 0.387 427.117 0 335.895 0 z M 335.895 60.521 C 425.581 60.521 436.205 60.864000000000004 471.624 62.480000000000004 C 504.374 63.973000000000006 522.159 69.44500000000001 533.994 74.045 C 549.674 80.139 560.863 87.417 572.616 99.171 C 584.371 110.92500000000001 591.649 122.11500000000001 597.7429999999999 137.793 C 602.343 149.62900000000002 607.8149999999999 167.41500000000002 609.308 200.16400000000002 C 610.924 235.58300000000003 611.2669999999999 246.20700000000002 611.2669999999999 335.894 C 611.2669999999999 425.581 610.924 436.20500000000004 609.308 471.624 C 607.8149999999999 504.374 602.343 522.159 597.7429999999999 533.994 C 591.6489999999999 549.674 584.371 560.863 572.616 572.616 C 560.8629999999999 584.371 549.673 591.649 533.995 597.7429999999999 C 522.159 602.343 504.373 607.8149999999999 471.624 609.308 C 436.211 610.924 425.588 611.2669999999999 335.894 611.2669999999999 C 246.2 611.2669999999999 235.579 610.924 200.16400000000002 609.3069999999999 C 167.41400000000002 607.8149999999999 149.62900000000002 602.3429999999998 137.794 597.7429999999999 C 122.114 591.6489999999999 110.92500000000001 584.371 99.17200000000001 572.616 C 87.418 560.8629999999999 80.13900000000001 549.673 74.04500000000002 533.995 C 69.44500000000002 522.159 63.97400000000002 504.373 62.48000000000002 471.624 C 60.86400000000002 436.20500000000004 60.521000000000015 425.581 60.521000000000015 335.894 C 60.521000000000015 246.207 60.86400000000002 235.583 62.48000000000002 200.16400000000002 C 63.97400000000002 167.41400000000002 69.44500000000002 149.62900000000002 74.04500000000002 137.794 C 80.13900000000001 122.114 87.41800000000002 110.92500000000001 99.17100000000002 99.17200000000001 C 110.92500000000003 87.41700000000002 122.11500000000002 80.13900000000001 137.793 74.04500000000002 C 149.62900000000002 69.44500000000002 167.41500000000002 63.97300000000001 200.16400000000002 62.48000000000002 C 235.58300000000003 60.86400000000002 246.20700000000002 60.521000000000015 335.894 60.521000000000015" stroke-linecap="round" />
</g>
		<g transform="matrix(0.79 0 0 0.79 18.71 -18.71)"  >
<path style="stroke: none; stroke-width: 1; stroke-dasharray: none; stroke-linecap: butt; stroke-dashoffset: 0; stroke-linejoin: miter; stroke-miterlimit: 4; fill: rgb(102,252,241); fill-rule: nonzero; opacity: 1;" vector-effect="non-scaling-stroke"  transform=" translate(-359.46, -312.33)" d="M 335.895 447.859 C 274.05699999999996 447.859 223.92899999999997 397.731 223.92899999999997 335.895 C 223.92899999999997 274.05699999999996 274.05699999999996 223.92899999999997 335.895 223.92899999999997 C 397.731 223.92899999999997 447.859 274.05699999999996 447.859 335.895 C 447.859 397.731 397.731 447.859 335.895 447.859 z M 335.895 163.40799999999996 C 240.63199999999998 163.40799999999996 163.408 240.63199999999995 163.408 335.895 C 163.408 431.15599999999995 240.632 508.38 335.895 508.38 C 431.15599999999995 508.38 508.38 431.156 508.38 335.895 C 508.38 240.63199999999998 431.156 163.408 335.895 163.408 M 555.5029999999999 156.593 C 555.5029999999999 178.855 537.4559999999999 196.89999999999998 515.1949999999999 196.89999999999998 C 492.93499999999995 196.89999999999998 474.8879999999999 178.85499999999996 474.8879999999999 156.59299999999996 C 474.8879999999999 134.33199999999997 492.93499999999995 116.28499999999997 515.1949999999999 116.28499999999997 C 537.4559999999999 116.28499999999997 555.5029999999999 134.33199999999997 555.5029999999999 156.59299999999996" stroke-linecap="round" />
</g>
</g>
</g>
<g transform="matrix(NaN NaN NaN NaN 0 0)"  >
<g style=""   >
</g>
</g>
<g transform="matrix(NaN NaN NaN NaN 0 0)"  >
<g style=""   >
</g>
</g>
</svg>

<svg xmlns="http://www.w3.org/2000/svg" height="800" width="1200" viewBox="-100.7682 -167.947 873.3244 1007.682"><g fill="#100f0d"><path d="M335.895 0c-91.224 0-102.663.387-138.49 2.021-35.752 1.631-60.169 7.31-81.535 15.612-22.088 8.584-40.82 20.07-59.493 38.743-18.674 18.673-30.16 37.407-38.743 59.495C9.33 137.236 3.653 161.653 2.02 197.405.386 233.232 0 244.671 0 335.895c0 91.222.386 102.661 2.02 138.488 1.633 35.752 7.31 60.169 15.614 81.534 8.584 22.088 20.07 40.82 38.743 59.495 18.674 18.673 37.405 30.159 59.493 38.743 21.366 8.302 45.783 13.98 81.535 15.612 35.827 1.634 47.266 2.021 138.49 2.021 91.222 0 102.661-.387 138.488-2.021 35.752-1.631 60.169-7.31 81.534-15.612 22.088-8.584 40.82-20.07 59.495-38.743 18.673-18.675 30.159-37.407 38.743-59.495 8.302-21.365 13.981-45.782 15.612-81.534 1.634-35.827 2.021-47.266 2.021-138.488 0-91.224-.387-102.663-2.021-138.49-1.631-35.752-7.31-60.169-15.612-81.534-8.584-22.088-20.07-40.822-38.743-59.495-18.675-18.673-37.407-30.159-59.495-38.743-21.365-8.302-45.782-13.981-81.534-15.612C438.556.387 427.117 0 335.895 0zm0 60.521c89.686 0 100.31.343 135.729 1.959 32.75 1.493 50.535 6.965 62.37 11.565 15.68 6.094 26.869 13.372 38.622 25.126 11.755 11.754 19.033 22.944 25.127 38.622 4.6 11.836 10.072 29.622 11.565 62.371 1.616 35.419 1.959 46.043 1.959 135.73 0 89.687-.343 100.311-1.959 135.73-1.493 32.75-6.965 50.535-11.565 62.37-6.094 15.68-13.372 26.869-25.127 38.622-11.753 11.755-22.943 19.033-38.621 25.127-11.836 4.6-29.622 10.072-62.371 11.565-35.413 1.616-46.036 1.959-135.73 1.959-89.694 0-100.315-.343-135.73-1.96-32.75-1.492-50.535-6.964-62.37-11.564-15.68-6.094-26.869-13.372-38.622-25.127-11.754-11.753-19.033-22.943-25.127-38.621-4.6-11.836-10.071-29.622-11.565-62.371-1.616-35.419-1.959-46.043-1.959-135.73 0-89.687.343-100.311 1.959-135.73 1.494-32.75 6.965-50.535 11.565-62.37 6.094-15.68 13.373-26.869 25.126-38.622 11.754-11.755 22.944-19.033 38.622-25.127 11.836-4.6 29.622-10.072 62.371-11.565 35.419-1.616 46.043-1.959 135.73-1.959"/><path d="M335.895 447.859c-61.838 0-111.966-50.128-111.966-111.964 0-61.838 50.128-111.966 111.966-111.966 61.836 0 111.964 50.128 111.964 111.966 0 61.836-50.128 111.964-111.964 111.964zm0-284.451c-95.263 0-172.487 77.224-172.487 172.487 0 95.261 77.224 172.485 172.487 172.485 95.261 0 172.485-77.224 172.485-172.485 0-95.263-77.224-172.487-172.485-172.487m219.608-6.815c0 22.262-18.047 40.307-40.308 40.307-22.26 0-40.307-18.045-40.307-40.307 0-22.261 18.047-40.308 40.307-40.308 22.261 0 40.308 18.047 40.308 40.308"/></g></svg>
